docs/topics/services/img/plantuml/lustre_fs.svg

<svg contentStyleType="text/css" height="335" preserveAspectRatio="none" viewBox="0 0 847 335" width="847" xmlns="http://www.w3.org/2000/svg" zoomAndPan="magnify"><rect fill="#f1f1f1" height="71.5547" rx="2.5" stroke="#181818" stroke-width=".5" width="133.0283" x="7" y="7"/><ellipse cx="22" cy="23" fill="#add1b2" rx="11" ry="11" stroke="#181818"/><path d="m24.9731 28.6431q-.581.2988-1.2202.4482-.6391.1494-1.3447.1494-2.5068 0-3.8267-1.6518-1.3198-1.6519-1.3198-4.773 0-3.1294 1.3198-4.7812 1.3199-1.6519 3.8267-1.6519.7056 0 1.353.1494.6475.1494 1.2119.4483v2.7226q-.6308-.581-1.2243-.8508-.5935-.2698-1.2244-.2698-1.3447 0-2.0295 1.0667-.6848 1.0666-.6848 3.1667 0 2.0918.6848 3.1585.6848 1.0666 2.0295 1.0666.6309 0 1.2244-.2698.5935-.2697 1.2243-.8508z"/><text font-family="sans-serif" font-size="14" lengthAdjust="spacing" textLength="101.0283" x="36" y="28.291">BlockAssembly</text><path d="m8 39h131.0283" stroke="#181818" stroke-width=".5"/><text fill="#808080" font-family="sans-serif" font-size="10" font-style="italic" lengthAdjust="spacing" textLength="106.7627" x="13" y="52.668">This will push subtree</text><text fill="#808080" font-family="sans-serif" font-size="10" font-style="italic" lengthAdjust="spacing" textLength="116.7725" x="13" y="64.4453">to the shared filesystem</text><path d="m8 70.5547h131.0283" stroke="#181818" stroke-width=".5"/><rect fill="#f1f1f1" height="48" rx="2.5" stroke="#181818" stroke-width=".5" width="136.1455" x="175.44" y="18.77"/><ellipse cx="190.44" cy="34.77" fill="#add1b2" rx="11" ry="11" stroke="#181818"/><path d="m193.4131 40.4131q-.581.2988-1.2202.4482-.6391.1494-1.3447.1494-2.5068 0-3.8267-1.6518-1.3198-1.6519-1.3198-4.773 0-3.1294 1.3198-4.7812 1.3199-1.6519 3.8267-1.6519.7056 0 1.353.1494.6475.1494 1.2119.4483v2.7226q-.6308-.581-1.2243-.8508-.5935-.2698-1.2244-.2698-1.3447 0-2.0295 1.0667-.6848 1.0666-.6848 3.1667 0 2.0918.6848 3.1585.6848 1.0666 2.0295 1.0666.6309 0 1.2244-.2698.5935-.2697 1.2243-.8508z"/><text font-family="sans-serif" font-size="14" lengthAdjust="spacing" textLength="104.1455" x="204.44" y="40.061">BlockValidation</text><g stroke="#181818"><path d="m176.44 50.77h134.1455" stroke-width=".5"/><path d="m176.44 58.77h134.1455" stroke-width=".5"/><rect fill="#f1f1f1" height="71.5547" rx="2.5" stroke-width=".5" width="156.9336" x="684.05" y="7"/><ellipse cx="699.05" cy="23" fill="#add1b2" rx="11" ry="11"/></g><path d="m702.0231 28.6431q-.581.2988-1.2202.4482-.6391.1494-1.3447.1494-2.5068 0-3.8267-1.6518-1.3198-1.6519-1.3198-4.773 0-3.1294 1.3198-4.7812 1.3199-1.6519 3.8267-1.6519.7056 0 1.353.1494.6475.1494 1.2119.4483v2.7226q-.6308-.581-1.2243-.8508-.5935-.2698-1.2244-.2698-1.3447 0-2.0295 1.0667-.6848 1.0666-.6848 3.1667 0 2.0918.6848 3.1585.6848 1.0666 2.0295 1.0666.6309 0 1.2244-.2698.5935-.2697 1.2243-.8508z"/><text font-family="sans-serif" font-size="14" lengthAdjust="spacing" textLength="124.9336" x="713.05" y="28.291">SubtreetValidation</text><path d="m685.05 39h154.9336" stroke="#181818" stroke-width=".5"/><text fill="#808080" font-family="sans-serif" font-size="10" font-style="italic" lengthAdjust="spacing" textLength="111.8604" x="690.05" y="52.668">This will push subtrees</text><text fill="#808080" font-family="sans-serif" font-size="10" font-style="italic" lengthAdjust="spacing" textLength="116.7725" x="690.05" y="64.4453">to the shared filesystem</text><path d="m685.05 70.5547h154.9336" stroke="#181818" stroke-width=".5"/><rect fill="#f1f1f1" height="48" rx="2.5" stroke="#181818" stroke-width=".5" width="116.3008" x="346.36" y="18.77"/><ellipse cx="361.36" cy="34.77" fill="#add1b2" rx="11" ry="11" stroke="#181818"/><path d="m364.3331 40.4131q-.581.2988-1.2202.4482-.6391.1494-1.3447.1494-2.5068 0-3.8267-1.6518-1.3198-1.6519-1.3198-4.773 0-3.1294 1.3198-4.7812 1.3199-1.6519 3.8267-1.6519.7056 0 1.353.1494.6475.1494 1.2119.4483v2.7226q-.6308-.581-1.2243-.8508-.5935-.2698-1.2244-.2698-1.3447 0-2.0295 1.0667-.6848 1.0666-.6848 3.1667 0 2.0918.6848 3.1585.6848 1.0666 2.0295 1.0666.6309 0 1.2244-.2698.5935-.2697 1.2243-.8508z"/><text font-family="sans-serif" font-size="14" lengthAdjust="spacing" textLength="84.3008" x="375.36" y="40.061">AssetService</text><path d="m347.36 50.77h114.3008" stroke="#181818" stroke-width=".5"/><path d="m347.36 58.77h114.3008" stroke="#181818" stroke-width=".5"/><rect fill="#f1f1f1" height="48" rx="2.5" stroke="#181818" stroke-width=".5" width="89.1006" x="278.96" y="155.55"/><ellipse cx="293.96" cy="171.55" fill="#add1b2" rx="11" ry="11" stroke="#181818"/><path d="m296.9331 177.1931q-.581.2988-1.2202.4482-.6391.1494-1.3447.1494-2.5068 0-3.8267-1.6518-1.3198-1.6519-1.3198-4.773 0-3.1294 1.3198-4.7812 1.3199-1.6519 3.8267-1.6519.7056 0 1.353.1494.6475.1494 1.2119.4483v2.7226q-.6308-.581-1.2243-.8508-.5935-.2698-1.2244-.2698-1.3447 0-2.0295 1.0667-.6848 1.0666-.6848 3.1667 0 2.0918.6848 3.1585.6848 1.0666 2.0295 1.0666.6309 0 1.2244-.2698.5935-.2697 1.2243-.8508z"/><text font-family="sans-serif" font-size="14" lengthAdjust="spacing" textLength="57.1006" x="307.96" y="176.841">LustreFS</text><path d="m279.96 187.55h87.1006" stroke="#181818" stroke-width=".5"/><path d="m279.96 195.55h87.1006" stroke="#181818" stroke-width=".5"/><rect fill="#f1f1f1" height="48" rx="2.5" stroke="#181818" stroke-width=".5" width="48.3926" x="299.32" y="280.55"/><ellipse cx="314.32" cy="296.55" fill="#add1b2" rx="11" ry="11" stroke="#181818"/><path d="m317.2931 302.1931q-.581.2988-1.2202.4482-.6391.1494-1.3447.1494-2.5068 0-3.8267-1.6518-1.3198-1.6519-1.3198-4.773 0-3.1294 1.3198-4.7812 1.3199-1.6519 3.8267-1.6519.7056 0 1.353.1494.6475.1494 1.2119.4483v2.7226q-.6308-.581-1.2243-.8508-.5935-.2698-1.2244-.2698-1.3447 0-2.0295 1.0667-.6848 1.0666-.6848 3.1667 0 2.0918.6848 3.1585.6848 1.0666 2.0295 1.0666.6309 0 1.2244-.2698.5935-.2697 1.2243-.8508z"/><text font-family="sans-serif" font-size="14" lengthAdjust="spacing" textLength="16.3926" x="328.32" y="301.841">S3</text><path d="m300.32 312.55h46.3926" stroke="#181818" stroke-width=".5"/><path d="m300.32 320.55h46.3926" stroke="#181818" stroke-width=".5"/><rect fill="#f1f1f1" height="48" rx="2.5" stroke="#181818" stroke-width=".5" width="151.6973" x="497.67" y="18.77"/><ellipse cx="512.67" cy="34.77" fill="#add1b2" rx="11" ry="11" stroke="#181818"/><path d="m515.6431 40.4131q-.581.2988-1.2202.4482-.6391.1494-1.3447.1494-2.5068 0-3.8267-1.6518-1.3198-1.6519-1.3198-4.773 0-3.1294 1.3198-4.7812 1.3199-1.6519 3.8267-1.6519.7056 0 1.353.1494.6475.1494 1.2119.4483v2.7226q-.6308-.581-1.2243-.8508-.5935-.2698-1.2244-.2698-1.3447 0-2.0295 1.0667-.6848 1.0666-.6848 3.1667 0 2.0918.6848 3.1585.6848 1.0666 2.0295 1.0666.6309 0 1.2244-.2698.5935-.2697 1.2243-.8508z"/><text font-family="sans-serif" font-size="14" lengthAdjust="spacing" textLength="119.6973" x="526.67" y="40.061">SubtreeValidation</text><path d="m498.67 50.77h149.6973" stroke="#181818" stroke-width=".5"/><path d="m498.67 58.77h149.6973" stroke="#181818" stroke-width=".5"/><path d="m100.77 78.78c14.2 16.2 32.76 34.53 52.74 46.77 38.9 23.81 89.41 37.77 125.24 45.34" fill="none" stroke="#181818"/><path d="m162.9506 119.5034-6.6823-6.7674-2.7016 5.2201z" stroke="#000"/><text font-family="sans-serif" font-size="13" lengthAdjust="spacing" textLength="81.6563" x="167.51" y="122.1184">subtrees TTL</text><path d="m246.2 67.01c2.8 17.17 8.39 40.58 19.31 58.54 6.74 11.07 16.46 21.22 26.03 29.61" fill="none" stroke="#181818"/><path d="m268.223 112.759 1.5237 9.3877 5.227-2.6885z" stroke="#000"/><text font-family="sans-serif" font-size="13" lengthAdjust="spacing" textLength="81.6563" x="279.51" y="122.1184">subtrees TTL</text><path d="m551.61 66.98c-18.13 18.07-45.34 42.67-73.1 58.57-34.67 19.86-77.97 33.88-109.99 42.5" fill="none" stroke="#181818"/><path d="m502.0327 119.6217 9.339-1.7984-2.8407-5.1459z" stroke="#000"/><text font-family="sans-serif" font-size="13" lengthAdjust="spacing" textLength="81.6563" x="515.41" y="122.1184">subtrees TTL</text><path d="m395.08 67.06c-7.19 16.77-17.83 39.67-29.57 58.49-6.33 10.16-14.29 20.64-21.56 29.57" fill="none" stroke="#181818"/><path d="m381.7206 112.8813-7.0833 6.3464 5.0831 2.9515z" stroke="#000"/><text font-family="sans-serif" font-size="13" lengthAdjust="spacing" textLength="81.6563" x="388.21" y="122.1184">subtrees TTL</text><path d="m323.51 203.97v76.24" fill="none" stroke="#181818"/><path d="m328.51 247.2053 2.9389-9.0451h-5.8778z" stroke="#000"/><text font-family="sans-serif" font-size="13" lengthAdjust="spacing" textLength="121.7544" x="337.51" y="247.1184">subtrees (non-TTL)</text></svg>

<svg xmlns="http://www.w3.org/2000/svg" xmlns:xlink="http://www.w3.org/1999/xlink" contentStyleType="text/css" height="335px" preserveAspectRatio="none" style="width:847px;height:335px;background:#FFFFFF;" version="1.1" viewBox="0 0 847 335" width="847px" zoomAndPan="magnify"><defs/><g><!--class BlockAssembly--><g id="elem_BlockAssembly"><rect codeLine="5" fill="#F1F1F1" height="71.5547" id="BlockAssembly" rx="2.5" ry="2.5" style="stroke:#181818;stroke-width:0.5;" width="133.0283" x="7" y="7"/><ellipse cx="22" cy="23" fill="#ADD1B2" rx="11" ry="11" style="stroke:#181818;stroke-width:1.0;"/><path d="M24.9731,28.6431 Q24.3921,28.9419 23.7529,29.0913 Q23.1138,29.2407 22.4082,29.2407 Q19.9014,29.2407 18.5815,27.5889 Q17.2617,25.937 17.2617,22.8159 Q17.2617,19.6865 18.5815,18.0347 Q19.9014,16.3828 22.4082,16.3828 Q23.1138,16.3828 23.7612,16.5322 Q24.4087,16.6816 24.9731,16.9805 L24.9731,19.7031 Q24.3423,19.1221 23.7488,18.8523 Q23.1553,18.5825 22.5244,18.5825 Q21.1797,18.5825 20.4949,19.6492 Q19.8101,20.7158 19.8101,22.8159 Q19.8101,24.9077 20.4949,25.9744 Q21.1797,27.041 22.5244,27.041 Q23.1553,27.041 23.7488,26.7712 Q24.3423,26.5015 24.9731,25.9204 Z " fill="#000000"/><text fill="#000000" font-family="sans-serif" font-size="14" lengthAdjust="spacing" textLength="101.0283" x="36" y="28.291">BlockAssembly</text><line style="stroke:#181818;stroke-width:0.5;" x1="8" x2="139.0283" y1="39" y2="39"/><text fill="#808080" font-family="sans-serif" font-size="10" font-style="italic" lengthAdjust="spacing" textLength="106.7627" x="13" y="52.668">This will push subtree</text><text fill="#808080" font-family="sans-serif" font-size="10" font-style="italic" lengthAdjust="spacing" textLength="116.7725" x="13" y="64.4453">to the shared filesystem</text><line style="stroke:#181818;stroke-width:0.5;" x1="8" x2="139.0283" y1="70.5547" y2="70.5547"/></g><!--class BlockValidation--><g id="elem_BlockValidation"><rect codeLine="10" fill="#F1F1F1" height="48" id="BlockValidation" rx="2.5" ry="2.5" style="stroke:#181818;stroke-width:0.5;" width="136.1455" x="175.44" y="18.77"/><ellipse cx="190.44" cy="34.77" fill="#ADD1B2" rx="11" ry="11" style="stroke:#181818;stroke-width:1.0;"/><path d="M193.4131,40.4131 Q192.8321,40.7119 192.1929,40.8613 Q191.5538,41.0107 190.8482,41.0107 Q188.3414,41.0107 187.0215,39.3589 Q185.7017,37.707 185.7017,34.5859 Q185.7017,31.4565 187.0215,29.8047 Q188.3414,28.1528 190.8482,28.1528 Q191.5538,28.1528 192.2012,28.3022 Q192.8487,28.4516 193.4131,28.7505 L193.4131,31.4731 Q192.7823,30.8921 192.1888,30.6223 Q191.5953,30.3525 190.9644,30.3525 Q189.6197,30.3525 188.9349,31.4192 Q188.2501,32.4858 188.2501,34.5859 Q188.2501,36.6777 188.9349,37.7444 Q189.6197,38.811 190.9644,38.811 Q191.5953,38.811 192.1888,38.5412 Q192.7823,38.2715 193.4131,37.6904 Z " fill="#000000"/><text fill="#000000" font-family="sans-serif" font-size="14" lengthAdjust="spacing" textLength="104.1455" x="204.44" y="40.061">BlockValidation</text><line style="stroke:#181818;stroke-width:0.5;" x1="176.44" x2="310.5855" y1="50.77" y2="50.77"/><line style="stroke:#181818;stroke-width:0.5;" x1="176.44" x2="310.5855" y1="58.77" y2="58.77"/></g><!--class SubtreetValidation--><g id="elem_SubtreetValidation"><rect codeLine="13" fill="#F1F1F1" height="71.5547" id="SubtreetValidation" rx="2.5" ry="2.5" style="stroke:#181818;stroke-width:0.5;" width="156.9336" x="684.05" y="7"/><ellipse cx="699.05" cy="23" fill="#ADD1B2" rx="11" ry="11" style="stroke:#181818;stroke-width:1.0;"/><path d="M702.0231,28.6431 Q701.4421,28.9419 700.8029,29.0913 Q700.1638,29.2407 699.4582,29.2407 Q696.9514,29.2407 695.6315,27.5889 Q694.3117,25.937 694.3117,22.8159 Q694.3117,19.6865 695.6315,18.0347 Q696.9514,16.3828 699.4582,16.3828 Q700.1638,16.3828 700.8112,16.5322 Q701.4587,16.6816 702.0231,16.9805 L702.0231,19.7031 Q701.3923,19.1221 700.7988,18.8523 Q700.2053,18.5825 699.5744,18.5825 Q698.2297,18.5825 697.5449,19.6492 Q696.8601,20.7158 696.8601,22.8159 Q696.8601,24.9077 697.5449,25.9744 Q698.2297,27.041 699.5744,27.041 Q700.2053,27.041 700.7988,26.7712 Q701.3923,26.5015 702.0231,25.9204 Z " fill="#000000"/><text fill="#000000" font-family="sans-serif" font-size="14" lengthAdjust="spacing" textLength="124.9336" x="713.05" y="28.291">SubtreetValidation</text><line style="stroke:#181818;stroke-width:0.5;" x1="685.05" x2="839.9836" y1="39" y2="39"/><text fill="#808080" font-family="sans-serif" font-size="10" font-style="italic" lengthAdjust="spacing" textLength="111.8604" x="690.05" y="52.668">This will push subtrees</text><text fill="#808080" font-family="sans-serif" font-size="10" font-style="italic" lengthAdjust="spacing" textLength="116.7725" x="690.05" y="64.4453">to the shared filesystem</text><line style="stroke:#181818;stroke-width:0.5;" x1="685.05" x2="839.9836" y1="70.5547" y2="70.5547"/></g><!--class AssetService--><g id="elem_AssetService"><rect codeLine="18" fill="#F1F1F1" height="48" id="AssetService" rx="2.5" ry="2.5" style="stroke:#181818;stroke-width:0.5;" width="116.3008" x="346.36" y="18.77"/><ellipse cx="361.36" cy="34.77" fill="#ADD1B2" rx="11" ry="11" style="stroke:#181818;stroke-width:1.0;"/><path d="M364.3331,40.4131 Q363.7521,40.7119 363.1129,40.8613 Q362.4738,41.0107 361.7682,41.0107 Q359.2614,41.0107 357.9415,39.3589 Q356.6217,37.707 356.6217,34.5859 Q356.6217,31.4565 357.9415,29.8047 Q359.2614,28.1528 361.7682,28.1528 Q362.4738,28.1528 363.1212,28.3022 Q363.7687,28.4516 364.3331,28.7505 L364.3331,31.4731 Q363.7023,30.8921 363.1088,30.6223 Q362.5153,30.3525 361.8844,30.3525 Q360.5397,30.3525 359.8549,31.4192 Q359.1701,32.4858 359.1701,34.5859 Q359.1701,36.6777 359.8549,37.7444 Q360.5397,38.811 361.8844,38.811 Q362.5153,38.811 363.1088,38.5412 Q363.7023,38.2715 364.3331,37.6904 Z " fill="#000000"/><text fill="#000000" font-family="sans-serif" font-size="14" lengthAdjust="spacing" textLength="84.3008" x="375.36" y="40.061">AssetService</text><line style="stroke:#181818;stroke-width:0.5;" x1="347.36" x2="461.6608" y1="50.77" y2="50.77"/><line style="stroke:#181818;stroke-width:0.5;" x1="347.36" x2="461.6608" y1="58.77" y2="58.77"/></g><!--class LustreFS--><g id="elem_LustreFS"><rect codeLine="21" fill="#F1F1F1" height="48" id="LustreFS" rx="2.5" ry="2.5" style="stroke:#181818;stroke-width:0.5;" width="89.1006" x="278.96" y="155.55"/><ellipse cx="293.96" cy="171.55" fill="#ADD1B2" rx="11" ry="11" style="stroke:#181818;stroke-width:1.0;"/><path d="M296.9331,177.1931 Q296.3521,177.4919 295.7129,177.6413 Q295.0738,177.7907 294.3682,177.7907 Q291.8614,177.7907 290.5415,176.1389 Q289.2217,174.487 289.2217,171.3659 Q289.2217,168.2365 290.5415,166.5847 Q291.8614,164.9328 294.3682,164.9328 Q295.0738,164.9328 295.7212,165.0822 Q296.3687,165.2316 296.9331,165.5305 L296.9331,168.2531 Q296.3023,167.6721 295.7088,167.4023 Q295.1153,167.1325 294.4844,167.1325 Q293.1397,167.1325 292.4549,168.1992 Q291.7701,169.2658 291.7701,171.3659 Q291.7701,173.4577 292.4549,174.5244 Q293.1397,175.591 294.4844,175.591 Q295.1153,175.591 295.7088,175.3212 Q296.3023,175.0515 296.9331,174.4704 Z " fill="#000000"/><text fill="#000000" font-family="sans-serif" font-size="14" lengthAdjust="spacing" textLength="57.1006" x="307.96" y="176.841">LustreFS</text><line style="stroke:#181818;stroke-width:0.5;" x1="279.96" x2="367.0606" y1="187.55" y2="187.55"/><line style="stroke:#181818;stroke-width:0.5;" x1="279.96" x2="367.0606" y1="195.55" y2="195.55"/></g><!--class S3--><g id="elem_S3"><rect codeLine="24" fill="#F1F1F1" height="48" id="S3" rx="2.5" ry="2.5" style="stroke:#181818;stroke-width:0.5;" width="48.3926" x="299.32" y="280.55"/><ellipse cx="314.32" cy="296.55" fill="#ADD1B2" rx="11" ry="11" style="stroke:#181818;stroke-width:1.0;"/><path d="M317.2931,302.1931 Q316.7121,302.4919 316.0729,302.6413 Q315.4338,302.7907 314.7282,302.7907 Q312.2214,302.7907 310.9015,301.1389 Q309.5817,299.487 309.5817,296.3659 Q309.5817,293.2365 310.9015,291.5847 Q312.2214,289.9328 314.7282,289.9328 Q315.4338,289.9328 316.0812,290.0822 Q316.7287,290.2316 317.2931,290.5305 L317.2931,293.2531 Q316.6623,292.6721 316.0688,292.4023 Q315.4753,292.1325 314.8444,292.1325 Q313.4997,292.1325 312.8149,293.1992 Q312.1301,294.2658 312.1301,296.3659 Q312.1301,298.4577 312.8149,299.5244 Q313.4997,300.591 314.8444,300.591 Q315.4753,300.591 316.0688,300.3212 Q316.6623,300.0515 317.2931,299.4704 Z " fill="#000000"/><text fill="#000000" font-family="sans-serif" font-size="14" lengthAdjust="spacing" textLength="16.3926" x="328.32" y="301.841">S3</text><line style="stroke:#181818;stroke-width:0.5;" x1="300.32" x2="346.7126" y1="312.55" y2="312.55"/><line style="stroke:#181818;stroke-width:0.5;" x1="300.32" x2="346.7126" y1="320.55" y2="320.55"/></g><!--class SubtreeValidation--><g id="elem_SubtreeValidation"><rect fill="#F1F1F1" height="48" id="SubtreeValidation" rx="2.5" ry="2.5" style="stroke:#181818;stroke-width:0.5;" width="151.6973" x="497.67" y="18.77"/><ellipse cx="512.67" cy="34.77" fill="#ADD1B2" rx="11" ry="11" style="stroke:#181818;stroke-width:1.0;"/><path d="M515.6431,40.4131 Q515.0621,40.7119 514.4229,40.8613 Q513.7838,41.0107 513.0782,41.0107 Q510.5714,41.0107 509.2515,39.3589 Q507.9317,37.707 507.9317,34.5859 Q507.9317,31.4565 509.2515,29.8047 Q510.5714,28.1528 513.0782,28.1528 Q513.7838,28.1528 514.4312,28.3022 Q515.0787,28.4516 515.6431,28.7505 L515.6431,31.4731 Q515.0123,30.8921 514.4188,30.6223 Q513.8253,30.3525 513.1944,30.3525 Q511.8497,30.3525 511.1649,31.4192 Q510.4801,32.4858 510.4801,34.5859 Q510.4801,36.6777 511.1649,37.7444 Q511.8497,38.811 513.1944,38.811 Q513.8253,38.811 514.4188,38.5412 Q515.0123,38.2715 515.6431,37.6904 Z " fill="#000000"/><text fill="#000000" font-family="sans-serif" font-size="14" lengthAdjust="spacing" textLength="119.6973" x="526.67" y="40.061">SubtreeValidation</text><line style="stroke:#181818;stroke-width:0.5;" x1="498.67" x2="648.3673" y1="50.77" y2="50.77"/><line style="stroke:#181818;stroke-width:0.5;" x1="498.67" x2="648.3673" y1="58.77" y2="58.77"/></g><!--link BlockAssembly to LustreFS--><g id="link_BlockAssembly_LustreFS"><path codeLine="26" d="M100.77,78.78 C114.97,94.98 133.53,113.31 153.51,125.55 C192.41,149.36 242.92,163.32 278.75,170.89 " fill="none" id="BlockAssembly-LustreFS" style="stroke:#181818;stroke-width:1.0;"/><polygon fill="#000000" points="162.9506,119.5034,156.2683,112.736,153.5667,117.9561,162.9506,119.5034" style="stroke:#000000;stroke-width:1.0;"/><text fill="#000000" font-family="sans-serif" font-size="13" lengthAdjust="spacing" textLength="81.6563" x="167.51" y="122.1184">subtrees TTL</text></g><!--link BlockValidation to LustreFS--><g id="link_BlockValidation_LustreFS"><path codeLine="27" d="M246.2,67.01 C249,84.18 254.59,107.59 265.51,125.55 C272.25,136.62 281.97,146.77 291.54,155.16 " fill="none" id="BlockValidation-LustreFS" style="stroke:#181818;stroke-width:1.0;"/><polygon fill="#000000" points="268.223,112.759,269.7467,122.1467,274.9737,119.4582,268.223,112.759" style="stroke:#000000;stroke-width:1.0;"/><text fill="#000000" font-family="sans-serif" font-size="13" lengthAdjust="spacing" textLength="81.6563" x="279.51" y="122.1184">subtrees TTL</text></g><!--link SubtreeValidation to LustreFS--><g id="link_SubtreeValidation_LustreFS"><path codeLine="28" d="M551.61,66.98 C533.48,85.05 506.27,109.65 478.51,125.55 C443.84,145.41 400.54,159.43 368.52,168.05 " fill="none" id="SubtreeValidation-LustreFS" style="stroke:#181818;stroke-width:1.0;"/><polygon fill="#000000" points="502.0327,119.6217,511.3717,117.8233,508.531,112.6774,502.0327,119.6217" style="stroke:#000000;stroke-width:1.0;"/><text fill="#000000" font-family="sans-serif" font-size="13" lengthAdjust="spacing" textLength="81.6563" x="515.41" y="122.1184">subtrees TTL</text></g><!--link AssetService to LustreFS--><g id="link_AssetService_LustreFS"><path codeLine="29" d="M395.08,67.06 C387.89,83.83 377.25,106.73 365.51,125.55 C359.18,135.71 351.22,146.19 343.95,155.12 " fill="none" id="AssetService-LustreFS" style="stroke:#181818;stroke-width:1.0;"/><polygon fill="#000000" points="381.7206,112.8813,374.6373,119.2277,379.7204,122.1792,381.7206,112.8813" style="stroke:#000000;stroke-width:1.0;"/><text fill="#000000" font-family="sans-serif" font-size="13" lengthAdjust="spacing" textLength="81.6563" x="388.21" y="122.1184">subtrees TTL</text></g><!--link LustreFS to S3--><g id="link_LustreFS_S3"><path codeLine="30" d="M323.51,203.97 C323.51,225.86 323.51,258.35 323.51,280.21 " fill="none" id="LustreFS-S3" style="stroke:#181818;stroke-width:1.0;"/><polygon fill="#000000" points="328.51,247.2053,331.4489,238.1602,325.5711,238.1602,328.51,247.2053" style="stroke:#000000;stroke-width:1.0;"/><text fill="#000000" font-family="sans-serif" font-size="13" lengthAdjust="spacing" textLength="121.7544" x="337.51" y="247.1184">subtrees (non-TTL)</text></g><!--SRC=[jP4nJyCm48Lt_ufZWo4AY2soB9Mgi4GC969td6jZnR4hdqCLAlux3g2Mj5941zPxdz-zUwPMswtqieDAgdRZNM_hfJFEmwxH0Hcxgd6jBSBBQbakdf_o5IWZYHWx3XwCK-s22BlA3B1d05oD5jd6uo2u5fpqEsPtjw9iDC5E6mFRdXgWlWeUaQUZBdWQoVJhfPZn20v2Wq2Dz5Z3MXkaWG9sxECiqwiqkfP1EnjJJUJYUtEO402N9gV_Y3us6GhqRrhXQUwyfxZtiJYxvnxsSJ3zYIGvyjaXCfHb3eAT5ZG3S_PJrzzmmIONp1eVb4Z56txfrzRP948t83u1]--></g></svg>
